public/images/home/Notifications-4.svg

<svg width="32" height="32" viewBox="0 0 32 32" fill="none" xmlns="http://www.w3.org/2000/svg">
<g filter="url(#filter0_b_58_838)">
<rect width="32" height="32" rx="16" fill="#C3C3C3" fill-opacity="0.3" style="mix-blend-mode:luminosity"/>
<rect x="0.5" y="0.5" width="31" height="31" rx="15.5" stroke="url(#paint0_linear_58_838)"/>
<path d="M16.3333 18.668L13.6667 16.0013M13.6667 16.0013L16.3333 13.3346M13.6667 16.0013H23M19.6667 18.668V19.3346C19.6667 19.8651 19.456 20.3738 19.0809 20.7488C18.7058 21.1239 18.1971 21.3346 17.6667 21.3346H13C12.4696 21.3346 11.9609 21.1239 11.5858 20.7488C11.2107 20.3738 11 19.8651 11 19.3346V12.668C11 12.1375 11.2107 11.6288 11.5858 11.2538C11.9609 10.8787 12.4696 10.668 13 10.668H17.6667C18.1971 10.668 18.7058 10.8787 19.0809 11.2538C19.456 11.6288 19.6667 12.1375 19.6667 12.668V13.3346" stroke="white" stroke-width="1.5" stroke-linecap="round" stroke-linejoin="round"/>
</g>
<defs>
<filter id="filter0_b_58_838" x="-115.377" y="-115.377" width="262.754" height="262.754" filterUnits="userSpaceOnUse" color-interpolation-filters="sRGB">
<feFlood flood-opacity="0" result="BackgroundImageFix"/>
<feGaussianBlur in="BackgroundImageFix" stdDeviation="57.6885"/>
<feComposite in2="SourceAlpha" operator="in" result="effect1_backgroundBlur_58_838"/>
<feBlend mode="normal" in="SourceGraphic" in2="effect1_backgroundBlur_58_838" result="shape"/>
</filter>
<linearGradient id="paint0_linear_58_838" x1="2.24176" y1="-7.09502e-06" x2="17.4878" y2="35.0987" gradientUnits="userSpaceOnUse">
<stop stop-color="white" stop-opacity="0.25"/>
<stop offset="0.605751" stop-color="white" stop-opacity="0.02"/>
<stop offset="0.701033" stop-color="white" stop-opacity="0.02"/>
<stop offset="1" stop-color="white" stop-opacity="0.1"/>
</linearGradient>
</defs>
</svg>

<svg xmlns="http://www.w3.org/2000/svg" width="32" height="32" fill="none" xmlns:v="https://vecta.io/nano"><g filter="url(#B)"><rect width="32" height="32" rx="16" fill="#c3c3c3" fill-opacity=".3" style="mix-blend-mode:luminosity"/><rect x=".5" y=".5" width="31" height="31" rx="15.5" stroke="url(#A)"/><path d="m16.333 18.668-2.666-2.667m0 0 2.666-2.666M13.667 16H23m-3.333 2.667v.667a2 2 0 0 1-2 2H13a2 2 0 0 1-2-2v-6.667a2 2 0 0 1 2-2h4.667a2 2 0 0 1 2 2v.667" stroke="#fff" stroke-width="1.5" stroke-linecap="round" stroke-linejoin="round"/></g><defs><linearGradient id="A" x1="2.242" y1="0" x2="17.488" y2="35.099" gradientUnits="userSpaceOnUse"><stop stop-color="#fff" stop-opacity=".25"/><stop offset=".606" stop-color="#fff" stop-opacity=".02"/><stop offset=".701" stop-color="#fff" stop-opacity=".02"/><stop offset="1" stop-color="#fff" stop-opacity=".1"/></linearGradient><filter id="B" x="-115.377" y="-115.377" width="262.754" height="262.754" filterUnits="userSpaceOnUse" color-interpolation-filters="sRGB"><feFlood flood-opacity="0"/><feGaussianBlur stdDeviation="57.688"/><feComposite in2="SourceAlpha" operator="in"/><feBlend in="SourceGraphic"/></filter></defs></svg>
